icons/svgs/ballot-outline.svg

<svg width="24" height="24" viewBox="0 0 24 24" fill="none" xmlns="http://www.w3.org/2000/svg">
<path d="M18.25 3.875H5.75C5.39844 3.875 5.125 4.1875 5.125 4.5V19.5C5.125 19.8516 5.39844 20.125 5.75 20.125H18.25C18.5625 20.125 18.875 19.8516 18.875 19.5V4.5C18.875 4.1875 18.5625 3.875 18.25 3.875ZM5.75 2H18.25C19.6172 2 20.75 3.13281 20.75 4.5V19.5C20.75 20.9062 19.6172 22 18.25 22H5.75C4.34375 22 3.25 20.9062 3.25 19.5V4.5C3.25 3.13281 4.34375 2 5.75 2ZM6.375 6.375C6.375 6.0625 6.64844 5.75 7 5.75H8.25C8.5625 5.75 8.875 6.0625 8.875 6.375V7.625C8.875 7.97656 8.5625 8.25 8.25 8.25H7C6.64844 8.25 6.375 7.97656 6.375 7.625V6.375ZM7 10.75H8.25C8.5625 10.75 8.875 11.0625 8.875 11.375V12.625C8.875 12.9766 8.5625 13.25 8.25 13.25H7C6.64844 13.25 6.375 12.9766 6.375 12.625V11.375C6.375 11.0625 6.64844 10.75 7 10.75ZM6.375 16.375C6.375 16.0625 6.64844 15.75 7 15.75H8.25C8.5625 15.75 8.875 16.0625 8.875 16.375V17.625C8.875 17.9766 8.5625 18.25 8.25 18.25H7C6.64844 18.25 6.375 17.9766 6.375 17.625V16.375ZM11.0625 6.0625H16.6875C17.1953 6.0625 17.625 6.49219 17.625 7C17.625 7.54688 17.1953 7.9375 16.6875 7.9375H11.0625C10.5156 7.9375 10.125 7.54688 10.125 7C10.125 6.49219 10.5156 6.0625 11.0625 6.0625ZM11.0625 11.0625H16.6875C17.1953 11.0625 17.625 11.4922 17.625 12C17.625 12.5469 17.1953 12.9375 16.6875 12.9375H11.0625C10.5156 12.9375 10.125 12.5469 10.125 12C10.125 11.4922 10.5156 11.0625 11.0625 11.0625ZM11.0625 16.0625H16.6875C17.1953 16.0625 17.625 16.4922 17.625 17C17.625 17.5469 17.1953 17.9375 16.6875 17.9375H11.0625C10.5156 17.9375 10.125 17.5469 10.125 17C10.125 16.4922 10.5156 16.0625 11.0625 16.0625Z" fill="black"/>
</svg>

<svg xmlns="http://www.w3.org/2000/svg" width="24" height="24" fill="currentColor" class="icon-ballot-outline" viewBox="0 0 24 24">
  <mask id="a" width="18" height="20" x="3" y="2" maskUnits="userSpaceOnUse" style="mask-type:alpha">
    <path d="M18.25 3.875H5.75a.64.64 0 0 0-.625.625v15c0 .352.273.625.625.625h12.5a.64.64 0 0 0 .625-.625v-15c0-.312-.312-.625-.625-.625M5.75 2h12.5c1.367 0 2.5 1.133 2.5 2.5v15c0 1.406-1.133 2.5-2.5 2.5H5.75a2.47 2.47 0 0 1-2.5-2.5v-15c0-1.367 1.094-2.5 2.5-2.5m.625 4.375c0-.312.273-.625.625-.625h1.25c.313 0 .625.313.625.625v1.25a.64.64 0 0 1-.625.625H7a.617.617 0 0 1-.625-.625zM7 10.75h1.25c.313 0 .625.313.625.625v1.25a.64.64 0 0 1-.625.625H7a.617.617 0 0 1-.625-.625v-1.25c0-.312.273-.625.625-.625m-.625 5.625c0-.312.273-.625.625-.625h1.25c.313 0 .625.313.625.625v1.25a.64.64 0 0 1-.625.625H7a.617.617 0 0 1-.625-.625zm4.688-10.312h5.624a.95.95 0 0 1 .938.937c0 .547-.43.938-.937.938h-5.625c-.547 0-.938-.391-.938-.938 0-.508.39-.937.938-.937m0 5h5.624a.95.95 0 0 1 .938.937c0 .547-.43.938-.937.938h-5.625c-.547 0-.938-.391-.938-.938 0-.508.39-.937.938-.937m0 5h5.624a.95.95 0 0 1 .938.937c0 .547-.43.938-.937.938h-5.625c-.547 0-.938-.391-.938-.938 0-.508.39-.937.938-.937"/>
  </mask>
  <g mask="url(#a)">
    <path d="M0 0h24v24H0z"/>
  </g>
</svg>
